X:1
T:Starlight, 12.12.12.12
T:Starlight, 12.12.12.12
T:Carl F. Crusius, 1920
T:Public Domain Courtesy of the Cyber Hymnal™
C:Carl F. Crusius, 1920
Z:Public Domain
Z:Courtesy of the Cyber Hymnal™
%%score ( 1 2 ) ( 3 4 )
L:1/8
Q:1/4=115
M:3/4
K:Eb
V:1 treble 
V:2 treble 
V:3 bass 
V:4 bass 
V:1
 [EG][FA] | [GB]2 [EG]2 [EAc]2 | [EGB]4 [EG][EGB] | [Ece]2 [EBd]2 [EAc]2 | [EGB]4 [EG][FA] | %5
 [GB]2 [EG]2 [EAc]2 | [EGB]4 [EGc][EGc] | [DFd]2 [DF]2 [EFc]2 | [DFB]4 [DB][E=A] | %9
 [FA]2 [Ad]2 [Ac]2 | [DFB]2 [DF]2 [D^F]2 | [EG]2 E2 [E^Fc]2 | [EGB]4 [EG][EGB] | %13
 [Ece]3 [EBd] [EAc]2 | [EGe]3 [EGB] [=EG]2 | [CFA]2 [B,EG]2 [A,DF]2 | [G,B,E]4 |] %17
V:2
 x2 | x6 | x6 | x6 | x6 | x6 | x6 | x6 | x6 | x6 | x6 | x2 E2 x2 | x6 | x6 | x6 | x6 | x4 |] %17
V:3
 z2 | [E,,E,]2 [E,B,]2 [E,A,]2 | [E,,E,]2 [E,G,B,]2 z2 | [A,,,A,,]4 [C,,C,]2 | %4
 [E,,E,]2 [E,G,B,]2 z2 | [E,,E,]2 [E,B,]2 [E,A,]2 | [E,,E,]2 [E,G,B,]2 z2 | %7
 [F,,F,]2 [F,B,]2 [F,=A,]2 | [B,,B,]4 B,[B,C] | [B,D]2 [B,F]2 [B,E]2 | [B,,B,]4 [B,,A,]2 | %11
 [E,,E,]2 [E,G,]2 [E,=A,]2 | [E,,E,]2 [E,G,B,]2 z2 | [A,,,A,,]2 [E,A,C]4 | %14
 [B,,,B,,]2 [E,G,B,]2 [C,G,C]2 | [F,,F,]2 [B,,B,]2 [B,,,B,,]2 | [E,,E,]4 |] %17
V:4
 x2 | x6 | x6 | x6 | x6 | x6 | x6 | x6 | x4 B, x | x6 | x6 | x6 | x6 | x6 | x6 | x6 | x4 |] %17

